src/assets/icons/file.svg

<svg viewBox="0 0 640 640" xmlns="http://www.w3.org/2000/svg"><path d="m192 64c-35.3 0-64 28.7-64 64v384c0 35.3 28.7 64 64 64h256c35.3 0 64-28.7 64-64v-277.5c0-17-6.7-33.3-18.7-45.3l-106.6-106.5c-12-12-28.2-18.7-45.2-18.7zm261.5 176h-93.5c-13.3 0-24-10.7-24-24v-93.5z"/></svg>

<svg xmlns="http://www.w3.org/2000/svg" viewBox="0 0 640 640"><!--!Font Awesome Free 7.0.1 by @fontawesome - https://fontawesome.com License - https://fontawesome.com/license/free Copyright 2025 Fonticons, Inc.--><path d="M192 64C156.7 64 128 92.7 128 128L128 512C128 547.3 156.7 576 192 576L448 576C483.3 576 512 547.3 512 512L512 234.5C512 217.5 505.3 201.2 493.3 189.2L386.7 82.7C374.7 70.7 358.5 64 341.5 64L192 64zM453.5 240L360 240C346.7 240 336 229.3 336 216L336 122.5L453.5 240z"/></svg>
